src/components/Icon/svg-icon/main/tag.svg

<svg xmlns="http://www.w3.org/2000/svg" width="24" height="24"><path fill="#677078" d="M21.41 11.58l-9-9C12.05 2.22 11.55 2 11 2H4c-1.1 0-2 .9-2 2v7c0 .55.22 1.05.59 1.42l9 9c.36.36.86.58 1.41.58.55 0 1.05-.22 1.41-.59l7-7c.37-.36.59-.86.59-1.41 0-.55-.23-1.06-.59-1.42zM5.5 7C4.67 7 4 6.33 4 5.5S4.67 4 5.5 4 7 4.67 7 5.5 6.33 7 5.5 7z"/></svg>

<svg xmlns="http://www.w3.org/2000/svg" width="24" height="24" viewBox="0 0 24 24">
  <path fill="#677078" d="M21.41,11.58 L12.41,2.58 C12.05,2.22 11.55,2 11,2 L4,2 C2.9,2 2,2.9 2,4 L2,11 C2,11.55 2.22,12.05 2.59,12.42 L11.59,21.42 C11.95,21.78 12.45,22 13,22 C13.55,22 14.05,21.78 14.41,21.41 L21.41,14.41 C21.78,14.05 22,13.55 22,13 C22,12.45 21.77,11.94 21.41,11.58 Z M5.5,7 C4.67,7 4,6.33 4,5.5 C4,4.67 4.67,4 5.5,4 C6.33,4 7,4.67 7,5.5 C7,6.33 6.33,7 5.5,7 Z"/>
</svg>
